icons/mini/photo.svg

<svg width="20" height="20" viewBox="0 0 20 20" fill="none" xmlns="http://www.w3.org/2000/svg">
<path fill-rule="evenodd" clip-rule="evenodd" d="M1 5.25C1 4.00736 2.00736 3 3.25 3H16.75C17.9926 3 19 4.00736 19 5.25V14.75C19 15.9926 17.9926 17 16.75 17H3.25C2.00736 17 1 15.9926 1 14.75V5.25ZM2.5 11.0607V14.75C2.5 15.1642 2.83579 15.5 3.25 15.5H16.75C17.1642 15.5 17.5 15.1642 17.5 14.75V12.0607L15.2803 9.84099C14.9874 9.5481 14.5126 9.5481 14.2197 9.84099L12.3107 11.75L12.7803 12.2197C13.0732 12.5126 13.0732 12.9874 12.7803 13.2803C12.4874 13.5732 12.0126 13.5732 11.7197 13.2803L6.53033 8.09099C6.23744 7.7981 5.76256 7.7981 5.46967 8.09099L2.5 11.0607ZM12 7C12 7.55228 11.5523 8 11 8C10.4477 8 10 7.55228 10 7C10 6.44772 10.4477 6 11 6C11.5523 6 12 6.44772 12 7Z" fill="#0F172A"/>
</svg>

<svg xmlns="http://www.w3.org/2000/svg" viewBox="0 0 20 20" fill="currentColor" aria-hidden="true" data-slot="icon">
  <path fill-rule="evenodd" d="M1 5.25A2.25 2.25 0 0 1 3.25 3h13.5A2.25 2.25 0 0 1 19 5.25v9.5A2.25 2.25 0 0 1 16.75 17H3.25A2.25 2.25 0 0 1 1 14.75v-9.5Zm1.5 5.81v3.69c0 .414.336.75.75.75h13.5a.75.75 0 0 0 .75-.75v-2.69l-2.22-2.219a.75.75 0 0 0-1.06 0l-1.91 1.909.47.47a.75.75 0 1 1-1.06 1.06L6.53 8.091a.75.75 0 0 0-1.06 0l-2.97 2.97ZM12 7a1 1 0 1 1-2 0 1 1 0 0 1 2 0Z" clip-rule="evenodd"/>
</svg>
